X:1
T:Title
%%score { ( 1 3 ) | ( 2 4 ) }
L:1/8
M:12/8
K:Bb
V:1 treble nm="Grand Piano"
V:3 treble 
V:2 bass 
V:4 bass 
V:1
 z6 z3[Q:1/4=100] [DF]3 | .[DF]6 [DB]3[K:bass][K:treble] z3 | .[Fc]6 [Fd]6 | .[Ge]6 [Fd]3 z3 | %4
 .[=EB]6 [Fc]6 | .[DF]6 [Fd]3 z3 | .[^Fd]6 [GB]6 | .[GB]6 [EG]3 z3 | d3 d2 c [DB]6 | %9
 c3 cB[CFA] [DFB]3 [B,DF]3 | .[Fe]6 z6 | .[^Fd]6 z6 | %12
[M:21/16] [DF]3 [FB]->[FB] z z3/2 z3[Q:1/4=99][Q:1/4=97][Q:1/4=96][Q:1/4=94][Q:1/4=93][Q:1/4=91][Q:1/4=90][Q:1/4=88][Q:1/4=87][Q:1/4=85][Q:1/4=84][Q:1/4=82][Q:1/4=81][Q:1/4=79][Q:1/4=78][Q:1/4=76] |] %13
V:2
 z6 z3 [B,,B,]3 | [B,,B,]B,,B,, B,,[B,,F,B,][B,,B,] [B,,F,]B,,B,, [B,,B,]2 [B,,B,] | %2
 [F,A,]F,F, F,[F,G,F][F,A,F] [B,,B,]B,,B,, B,,2 [B,,B,] | %3
 [E,B,]E,E, E,[E,B,E][E,B,] [B,,B,]B,,B,, B,,2 [D,F,] | %4
 [C,G,]C,C, C,[C,G,][C,G,] [F,A,]F,F, F,2 F, | %5
 B,,B,,B,, B,,[B,,F,][B,,F,] [B,,B,]B,,B,, [B,,B,]2 [D,B,] | [D,A,]D,D, D,D,D, G,G,G, G,2 G, | %7
 E,E,E, E,E,E, B,,B,,B,, B,,2 D, | [F,B,F]3 [F,A,F]2 [F,A,E] [B,,B,]6 | z3 .E3 z6 | %10
 [F,C]F,F, F,[F,B,F][F,A,F] [B,,B,]6 | [D,A,]D,D, D,D,[D,A,] [E,G,]3 [E,B,]3 | %12
[M:21/16] [F,B,]F,/-F,/F,F,F,/-F,/F,B,,3/2- B,,3 |] %13
V:3
 x12 | z B,B, B,D[DF] z[K:bass] F,F,[K:treble] [DF]2 [DB] | z A,A, A,Bc z B,B, B,2 [_Ad] | %3
 z B,B, B,G[Ge] z B,B, [B,DB]2 [FB] | z G,G, G,[=EA][EB] z A,A, A,2 [A,_EF] | %5
 B,B,B, B,[DB][Ec] z B,B, [Fd]2 [Fd] | z A,A, A,[D^FA][DFc] DDD D2 [DGB] | %7
 EEE E[B,FA][B,EG] B,B,B, [B,DF]2 [B,FB] | x12 | x12 | z CC Cdc [Fd]6 | %11
 z A,A, A,[D^FA][Fc] [GB]3 [EG]3 |[M:21/16] z B,/-B,/B,DD/-D/[CEA][B,DB]3/2- [B,DB]3 |] %13
V:4
 x12 | x12 | x12 | x12 | x12 | x12 | x12 | x12 | x12 | [F,EF]3 [F,F]-[F,DF]F, B,,3 B,,3 | x12 | %11
 x12 |[M:21/16] x21/2 |] %13

